dist/img/logo.svg

<svg xmlns="http://www.w3.org/2000/svg" width="1056" height="473.515" viewBox="0 0 1056 473.515"><path fill="#101717" d="M-.136 5.216h48.173v178.567h106.768v40.5H-.135V5.215zM669.602 5.216h48.174v90.818l85.597-90.818h60.135l-85.6 86.52 93.885 132.545H811.35l-65.962-98.485-27.61 27.92v70.566h-48.175V5.217zM917.803 150.587c0 28.767 22.7 39.966 48.475 39.966 16.87 0 42.645-4.843 42.645-26.946 0-23.314-32.828-27.255-65.047-35.732-32.516-8.478-65.348-20.892-65.348-61.47C878.528 22.2 920.868 1 960.448 1c45.71 0 87.747 19.684 87.747 69.646h-46.635c-1.533-26.042-20.25-32.702-43.26-32.702-15.342 0-33.137 6.355-33.137 24.53 0 16.65 10.432 18.77 65.35 32.7 15.953 3.938 65.045 13.93 65.045 62.98 0 39.67-31.6 69.347-91.123 69.347-48.475 0-93.887-23.622-93.273-76.913h46.64zM-.136 242.937h48.173v178.567h106.768v40.498H-.135V242.937zM719.31 437.15c-16.874 21.783-38.964 30.068-60.136 30.068-67.805 0-107.686-50.625-107.686-113.828 0-65.045 39.88-115.67 107.686-115.67 44.795 0 87.14 27.615 92.35 77.318h-46.018c-5.52-24.238-23.627-36.816-46.332-36.816-43.256 0-59.52 36.816-59.52 75.168 0 36.514 16.264 73.33 59.52 73.33 31.3 0 49.4-16.876 52.16-47.25H662.86V343.57h92.043v118.43H724.22l-4.91-24.85zM781.58 242.937h48.172v219.065H781.58V242.937zM1005.854 316.574c-3.07-21.78-23.93-38.352-47.865-38.352-43.255 0-59.52 36.816-59.52 75.168 0 36.514 16.265 73.33 59.52 73.33 29.456 0 46.026-20.25 49.708-49.093h46.635c-4.91 54.616-42.646 89.59-96.344 89.59-67.806 0-107.69-50.624-107.69-113.827 0-65.045 39.885-115.67 107.69-115.67 48.175 0 88.675 28.226 94.5 78.854h-46.636z"/><path fill="#101717" d="M545.346.77c-40.935.395-74.675 30.89-77.107 70.858-.218 1.79-.346 3.61-.36 5.456-.067 6.016.935 11.807 2.828 17.197 5.357 15.244 17.89 27.258 33.664 32.198 7.274 2.888 15.3 4.52 23.752 4.52 32.71 0 59.23-24.034 59.23-53.7 0-29.65-26.52-53.688-59.23-53.688-11.42 0-22.05 2.98-31.098 8.058 12.316-14.93 31.05-24.233 51.977-24.123 66.973.385 86.375 39.934 85.39 80.196-.81 33.233-24.517 58.618-57.27 65.157-14.978 1.982-31.68 1.99-49.06 1.136-85.67-4.198-241.31-3.598-209.563 173.686 14.564 73.3 72.09 85.58 110.007 73.88 23.452-7.145 40.367-27.198 40.367-50.864 0-28.733-24.917-52.128-56.222-53.556l-.433-.02c-.858-.033-1.708-.125-2.574-.125-32.71 0-59.226 24.044-59.226 53.7 0 20.114 12.59 36.31 30.278 46.82-21.25-6.394-49.027-25.878-50.17-64.52-1.493-50.63 43.765-84.516 91.987-84.516 42.29 0 103.757 28.26 97.12 89.448-13.963 128.537-225.292 163.71-269.798-4.247-19.692-86.25 20.354-141.77 65.704-151.922 4.832-1.087 18.054-2.72 23.42-2.042 0 0-.14-3.758 0-3.752 0 0-5.03 1.024-16.054.164-35.975-3.817-43.38-39.155-42.937-82.148.495-47.783 19.608-77.344 48.07-83.02 91.22-18.17 127.542 96.076 53.09 99.933-37.57 1.944-36.378-58.407-2.31-55.768l2.494-1.273c-67.415-37.216-106.055 65.917-12.34 69.98 84.612 3.67 80.37-132.24-53.22-122.43C267.388 4.998 200.61 36.956 200.61 97.697c0 57.065 48.31 73.208 101.657 79.418-92.03 7.97-159.06 70.35-158.85 143.658.59 203.76 374.803 194.798 380.97 10.576 0-27.33-10.93-53.24-28.287-73.33 63.908 7.333 146.084-22.688 144.672-167.388C641.846 48.497 617.334.088 545.346.772z"/></svg>

<?xml version="1.0" standalone="no"?>
<!DOCTYPE svg PUBLIC "-//W3C//DTD SVG 1.1//EN" "http://www.w3.org/Graphics/SVG/1.1/DTD/svg11.dtd">
<svg width="100%" height="100%" viewBox="0 0 1056 474" version="1.1" xmlns="http://www.w3.org/2000/svg" xmlns:xlink="http://www.w3.org/1999/xlink" xml:space="preserve" style="fill-rule:evenodd;clip-rule:evenodd;stroke-linejoin:round;stroke-miterlimit:1.41421;">
    <path d="M-0.136,5.216L48.037,5.216L48.037,183.783L154.805,183.783L154.805,224.283L-0.135,224.283L-0.135,5.215L-0.136,5.216ZM669.602,5.216L717.776,5.216L717.776,96.034L803.373,5.216L863.508,5.216L777.908,91.736L871.793,224.281L811.35,224.281L745.388,125.796L717.778,153.716L717.778,224.282L669.603,224.282L669.603,5.217L669.602,5.216ZM917.803,150.587C917.803,179.354 940.503,190.553 966.278,190.553C983.148,190.553 1008.92,185.71 1008.92,163.607C1008.92,140.293 976.095,136.352 943.876,127.875C911.36,119.397 878.528,106.983 878.528,66.405C878.528,22.2 920.868,1 960.448,1C1006.16,1 1048.19,20.684 1048.19,70.646L1001.56,70.646C1000.03,44.604 981.31,37.944 958.3,37.944C942.958,37.944 925.163,44.299 925.163,62.474C925.163,79.124 935.595,81.244 990.513,95.174C1006.47,99.112 1055.56,109.104 1055.56,158.154C1055.56,197.824 1023.96,227.501 964.435,227.501C915.96,227.501 870.548,203.879 871.162,150.588L917.802,150.588L917.803,150.587ZM-0.136,242.937L48.037,242.937L48.037,421.504L154.805,421.504L154.805,462.002L-0.135,462.002L-0.135,242.937L-0.136,242.937ZM719.31,437.15C702.436,458.933 680.346,467.218 659.174,467.218C591.369,467.218 551.488,416.593 551.488,353.39C551.488,288.345 591.368,237.72 659.174,237.72C703.969,237.72 746.314,265.335 751.524,315.038L705.506,315.038C699.986,290.8 681.879,278.222 659.174,278.222C615.918,278.222 599.654,315.038 599.654,353.39C599.654,389.904 615.918,426.72 659.174,426.72C690.474,426.72 708.574,409.844 711.334,379.47L662.86,379.47L662.86,343.57L754.903,343.57L754.903,462L724.22,462L719.31,437.15ZM781.58,242.937L829.752,242.937L829.752,462.002L781.58,462.002L781.58,242.937ZM1005.85,316.574C1002.78,294.794 981.924,278.222 957.989,278.222C914.734,278.222 898.469,315.038 898.469,353.39C898.469,389.904 914.734,426.72 957.989,426.72C987.445,426.72 1004.01,406.47 1007.7,377.627L1054.33,377.627C1049.42,432.243 1011.69,467.217 957.988,467.217C890.182,467.217 850.298,416.593 850.298,353.39C850.298,288.345 890.183,237.72 957.988,237.72C1006.16,237.72 1046.66,265.946 1052.49,316.574L1005.85,316.574Z" style="fill:rgb(16,23,23);fill-rule:nonzero;"/>
    <path d="M414.139,404.71C377.42,409.482 331.318,392.238 318.499,327.721C286.752,150.437 442.392,149.837 528.062,154.035C545.442,154.889 562.144,154.881 577.122,152.899C609.875,146.36 633.582,120.975 634.392,87.742C635.377,47.48 615.975,7.931 549.002,7.546C528.582,7.439 510.25,16.294 497.932,30.594C482.36,38.554 471.159,52.716 468.409,69.388C469.847,53.556 476.216,39.3 485.975,27.937C500.172,11.407 521.542,1 545.346,0.77L545.346,0.772C617.334,0.088 641.846,48.497 640.772,90.631C642.184,235.331 560.008,265.352 496.1,258.019C513.457,278.109 524.387,304.019 524.387,331.349C518.22,515.571 144.007,524.533 143.417,320.773C143.207,247.465 210.237,185.085 302.267,177.115C248.92,170.905 200.61,154.762 200.61,97.697C200.61,36.956 267.388,4.998 315.752,1.443C449.342,-8.367 453.584,127.543 368.972,123.873C275.257,119.81 313.897,16.677 381.312,53.893L378.818,55.166C344.75,52.527 343.558,112.878 381.128,110.934C455.58,107.077 419.258,-7.169 328.038,11.001C299.576,16.677 280.463,46.238 279.968,94.021C279.525,137.014 286.93,172.352 322.905,176.169C333.929,177.029 338.959,176.005 338.959,176.005C338.819,175.999 338.959,179.757 338.959,179.757C333.593,179.079 320.371,180.712 315.539,181.799C270.189,191.951 230.143,247.471 249.835,333.721C294.341,501.678 505.67,466.505 519.633,337.968C526.27,276.78 464.803,248.52 422.513,248.52C374.291,248.52 329.033,282.406 330.526,333.036C331.62,370.027 357.12,389.462 377.939,396.664C378.329,396.867 378.722,397.066 379.118,397.261C388.008,402.055 398.394,404.809 409.49,404.809L410.011,404.807C410.178,404.808 410.345,404.809 410.511,404.809C411.73,404.809 412.939,404.776 414.139,404.71Z" style="fill:rgb(16,23,23);"/>
    <g id="ball2" transform="matrix(1.00438,0,0,1.00438,-119.925,273.286)">
        <path d="M527.625,130.997L527.106,130.999C516.059,130.999 505.718,128.257 496.867,123.484C484.668,117.499 475.183,107.017 470.707,94.281C468.854,89.004 467.854,83.342 467.876,77.462L467.876,77.311C467.876,47.645 494.396,23.611 527.106,23.611C527.272,23.611 527.438,23.612 527.604,23.613L528.123,23.611C539.17,23.611 549.511,26.353 558.362,31.126C570.561,37.111 580.046,47.593 584.522,60.329C586.375,65.606 587.375,71.268 587.352,77.148L587.353,77.299C587.353,106.965 560.833,130.999 528.123,130.999C527.957,130.999 527.791,130.998 527.625,130.997Z" style="fill:rgb(16,23,23);stroke-width:1px;stroke:black;"/>
    </g>
    <g id="ball1" transform="matrix(1.00438,0,0,1.00438,-1.92494,0.285584)">
        <path d="M527.625,130.997L527.106,130.999C516.059,130.999 505.718,128.257 496.867,123.484C484.668,117.499 475.183,107.017 470.707,94.281C468.854,89.004 467.854,83.342 467.876,77.462L467.876,77.311C467.876,47.645 494.396,23.611 527.106,23.611C527.272,23.611 527.438,23.612 527.604,23.613L528.123,23.611C539.17,23.611 549.511,26.353 558.362,31.126C570.561,37.111 580.046,47.593 584.522,60.329C586.375,65.606 587.375,71.268 587.352,77.148L587.353,77.299C587.353,106.965 560.833,130.999 528.123,130.999C527.957,130.999 527.791,130.998 527.625,130.997Z" style="fill:rgb(16,23,23);stroke-width:1px;stroke:black;"/>
    </g>
</svg>
